tools/download-figma-icons/icons/outlined-medium/piggy-coin.svg

<svg width="24" height="24" viewBox="0 0 24 24" fill="none" xmlns="http://www.w3.org/2000/svg">
<path fill-rule="evenodd" clip-rule="evenodd" d="M20.634 14.1234H22.5V10.7694H20.6738L20.4818 10.3074C19.6178 8.23145 17.5388 6.60696 14.8621 5.85546C14.6858 6.33396 14.4203 6.76671 14.0783 7.13346C15.1538 7.39821 15.7425 7.75445 15.7816 7.7792C16.1303 8.0027 16.233 8.4662 16.0095 8.8157C15.7868 9.16445 15.3241 9.2672 14.9738 9.0437L14.9736 9.0436C14.9554 9.03256 13.69 8.26855 11.3176 8.3477C8.68734 8.4257 7.78959 9.1937 7.78134 9.2012C7.63659 9.32795 7.45434 9.3917 7.27434 9.3917C7.07334 9.3917 6.8746 9.3137 6.72835 9.1577C6.4516 8.8607 6.4531 8.40395 6.7426 8.11895C6.8221 8.04095 7.35009 7.56471 8.60934 7.21596C8.27484 6.87696 8.00184 6.47646 7.81284 6.03096C4.52036 7.15671 2.36262 9.6332 2.36262 12.3939C2.36262 14.8134 3.99611 17.0304 6.73135 18.3249L7.16034 18.5281V21.0421H9.02108V19.1296L9.88133 19.2579C11.1548 19.4476 12.5708 19.4221 13.8151 19.1844L14.7061 19.0141V21.0309H16.5668V18.3174L16.965 18.1059C18.5888 17.2419 19.8218 15.9879 20.4375 14.5742L20.634 14.1234ZM13.6088 4.54824C13.6088 3.28074 12.5776 2.2495 11.3093 2.2495C10.0418 2.2495 9.01059 3.28074 9.01059 4.54824C9.01059 5.81648 10.0418 6.84773 11.3093 6.84773C12.5776 6.84773 13.6088 5.81648 13.6088 4.54824ZM18.729 6.00174L20.6258 4.10575C19.1423 3.39175 17.3476 4.05325 16.1498 4.6945C17.0911 5.03574 17.9603 5.47224 18.729 6.00174ZM21.6555 9.26946H22.8765C23.496 9.26946 24 9.77346 24 10.393V14.4999C24 15.1194 23.496 15.6234 22.8765 15.6234H21.5978C20.8605 17.0409 19.6298 18.2912 18.0668 19.2077V21.4074C18.0668 22.0269 17.5628 22.5309 16.9433 22.5309H14.3296C13.7101 22.5309 13.2061 22.0269 13.2061 21.4074V20.7947C12.3346 20.8967 11.4083 20.9132 10.5211 20.8397V21.4194C10.5211 22.0381 10.0171 22.5421 9.39759 22.5421H6.78385C6.16435 22.5421 5.66036 22.0381 5.66036 21.4194V19.4672C2.64612 17.8892 0.862631 15.2739 0.862631 12.3939C0.862631 11.908 0.917381 11.4302 1.01788 10.963C0.874631 10.9232 0.736631 10.8647 0.612132 10.7792C-0.0688644 10.3127 -0.198614 9.31146 0.323384 8.54797C0.557382 8.20672 1.02313 8.11897 1.36588 8.35297C1.66963 8.55997 1.76113 8.94847 1.61638 9.27321C2.67012 7.16198 4.76786 5.43848 7.5106 4.54749C7.51135 2.4535 9.21534 0.749508 11.3093 0.749508C13.0846 0.749508 14.5681 1.9795 14.9828 3.62799C16.6336 2.65075 19.8323 1.27676 22.2938 3.42774C22.4498 3.56499 22.542 3.76074 22.5488 3.96774C22.5563 4.17474 22.4768 4.37649 22.3298 4.52274L19.8998 6.95198C20.628 7.63972 21.2295 8.41597 21.6555 9.26946ZM16.561 10.0441C16.561 9.62412 16.9008 9.28438 17.32 9.28438C17.7393 9.28438 18.079 9.62412 18.079 10.0441C18.079 10.4626 17.7393 10.8024 17.32 10.8024C16.9008 10.8024 16.561 10.4626 16.561 10.0441Z" fill="black"/>
</svg>

<svg width="24" height="24" viewBox="0 0 24 24" fill="none" xmlns="http://www.w3.org/2000/svg"><path fill-rule="evenodd" clip-rule="evenodd" d="M20.634 14.123H22.5V10.77h-1.826l-.192-.462c-.864-2.076-2.943-3.7-5.62-4.452a3.79 3.79 0 0 1-.784 1.278c1.076.265 1.665.621 1.704.646a.75.75 0 0 1-.808 1.265c-.019-.011-1.284-.775-3.656-.696-2.63.078-3.528.846-3.537.853a.77.77 0 0 1-.507.19.744.744 0 0 1-.546-.233.741.741 0 0 1 .015-1.039c.08-.078.607-.554 1.866-.903a3.805 3.805 0 0 1-.796-1.185c-3.293 1.126-5.45 3.602-5.45 6.363 0 2.42 1.633 4.636 4.368 5.93l.43.204v2.514h1.86V19.13l.86.128c1.274.19 2.69.164 3.934-.074l.891-.17v2.017h1.86v-2.714l.399-.211c1.624-.864 2.857-2.118 3.473-3.532l.196-.45Zm-7.025-9.575a2.302 2.302 0 0 0-2.3-2.299 2.301 2.301 0 0 0-2.298 2.3 2.301 2.301 0 0 0 2.298 2.299c1.269 0 2.3-1.032 2.3-2.3Zm5.12 1.454 1.897-1.896c-1.484-.714-3.278-.053-4.476.588.941.342 1.81.778 2.579 1.308Zm2.927 3.267h1.22c.62 0 1.124.504 1.124 1.124V14.5c0 .62-.504 1.123-1.123 1.123h-1.28c-.737 1.418-1.967 2.668-3.53 3.585v2.2c0 .619-.504 1.123-1.124 1.123H14.33c-.62 0-1.124-.504-1.124-1.124v-.612a13.71 13.71 0 0 1-2.685.045v.58c0 .618-.504 1.122-1.123 1.122H6.784c-.62 0-1.124-.504-1.124-1.123v-1.952C2.646 17.89.863 15.274.863 12.394c0-.486.054-.964.155-1.431a1.349 1.349 0 0 1-.406-.184c-.68-.466-.81-1.468-.289-2.231a.75.75 0 0 1 1.043-.195.74.74 0 0 1 .25.92C2.67 7.162 4.768 5.438 7.511 4.547A3.804 3.804 0 0 1 11.309.75c1.776 0 3.26 1.23 3.674 2.878 1.65-.977 4.85-2.351 7.31-.2a.753.753 0 0 1 .037 1.095L19.9 6.952c.728.688 1.33 1.464 1.756 2.317Zm-5.095.775a.76.76 0 1 1 1.518-.001.76.76 0 0 1-1.518.001Z" fill="currentColor"/></svg>
